X:5212
T:Polverita Fiera
O:england
M:3/4
L:1/8
C:L E McCullough
R:Waltz
K:G
Bc|:dG Bd cB|AD FA cB|GA GF DB,|C4B,C|DB, DG BA|cC EG cB|Ad cB AG|1A4 Bc
|2G4FG|
|:AD cD BD|AD cD BD|AB (3cBA FG|A4GF|EG BG AB|cC EG cB|Ad cA FA|1G4 FG:|
2G4||


